wp-content/themes/bsm-child/assets/images/r.svg

<?xml version="1.0" encoding="UTF-8"?>
<svg id="Layer_2" data-name="Layer 2" xmlns="http://www.w3.org/2000/svg" viewBox="0 0 12.14 12.47">
  <defs>
    <style>
      .cls-1 {
        fill: #fff;
        stroke-width: 0px;
      }
    </style>
  </defs>
  <g id="sonrisas">
    <path class="cls-1" d="M0,6.23C0,2.89,1.96,0,6.07,0s6.07,2.89,6.07,6.23-1.96,6.23-6.07,6.23S0,9.57,0,6.23ZM11,6.23c0-3.79-1.96-5.17-4.93-5.17S1.14,2.44,1.14,6.23s1.96,5.13,4.93,5.13,4.93-1.39,4.93-5.13ZM3.87,3.3h2.28c1.59,0,2.36.53,2.36,1.79,0,1.02-.69,1.55-1.59,1.55v.08c.49.16.69.41,1.06,1.06l.73,1.22h-1.14l-.61-1.06c-.45-.81-.65-1.1-1.55-1.1h-.61v2.16h-.94V3.3ZM6.4,6.03c.9,0,1.14-.24,1.14-.86,0-.81-.24-.98-1.14-.98h-1.59v1.83h1.59Z"/>
  </g>
</svg>

<?xml version="1.0" encoding="UTF-8"?>
<svg width="84px" height="19px" viewBox="0 0 84 19" version="1.1" xmlns="http://www.w3.org/2000/svg" xmlns:xlink="http://www.w3.org/1999/xlink">
    <title>Group 4</title>
    <g id="Page-1" stroke="none" stroke-width="1" fill="none" fill-rule="evenodd">
        <g id="Group-4">
            <rect id="Rectangle-Copy-3" fill-opacity="0" fill="#D8D8D8" x="0" y="0" width="83" height="19"></rect>
            <g id="r" transform="translate(71, 3)" fill="#000000" fill-rule="nonzero">
                <path d="M0,6.23 C0,2.89 1.96,0 6.07,0 C10.18,0 12.14,2.89 12.14,6.23 C12.14,9.57 10.18,12.46 6.07,12.46 C1.96,12.46 0,9.57 0,6.23 Z M11,6.23 C11,2.44 9.04,1.06 6.07,1.06 C3.1,1.06 1.14,2.44 1.14,6.23 C1.14,10.02 3.1,11.36 6.07,11.36 C9.04,11.36 11,9.97 11,6.23 Z M3.87,3.3 L6.15,3.3 C7.74,3.3 8.51,3.83 8.51,5.09 C8.51,6.11 7.82,6.64 6.92,6.64 L6.92,6.72 C7.41,6.88 7.61,7.13 7.98,7.78 L8.71,9 L7.57,9 L6.96,7.94 C6.51,7.13 6.31,6.84 5.41,6.84 L4.8,6.84 L4.8,9 L3.86,9 L3.86,3.3 L3.87,3.3 Z M6.4,6.03 C7.3,6.03 7.54,5.79 7.54,5.17 C7.54,4.36 7.3,4.19 6.4,4.19 L4.81,4.19 L4.81,6.02 L6.4,6.02 L6.4,6.03 Z" id="Shape"></path>
            </g>
        </g>
    </g>
</svg>
